X:138
%%etbk:tnset id:275,pos:2,rep:4x,ant:Acc+Flu+Fid+Gui.  A:klein+fein B:Aufmachen (Akkorde) ausser 1.x
%%etbk:wsite http://www.thesession.org/tunes/display/10532
%%etbk:pldat 2015-09-10T17:11,2015-09-07T19:01,2015-09-06T14:54,2015-07-31T18:01,2015-07-30T18:51,2015-02-22T16:12,2015-02-21T17:22,2015-02-19T19:58,2015-02-18T17:21,2015-02-16T18:31,2015-02-13T18:33,2015-02-02T18:20,2015-01-26T18:50,2015-01-21T16:53,2015-01-14T17:31,2015-01-13T16:26,2015-01-10T14:46,2015-01-08T18:25,2015-01-07T15:14,2015-01-05T18:00,2014-12-28T13:58,2014-12-17T18:36,2014-12-09T16:25,2014-11-30T15:16,2014-11-19T15:17,2014-11-13T18:35,2014-11-12T18:49,2014-10-16T18:44,2014-10-14T18:09,2014-10-13T17:55,2014-10-10T15:30,2014-09-18T18:31,2014-09-15T18:02,2014-09-13T13:10,2014-08-14T18:31,2014-08-13T19:15,2014-08-12T18:25,2014-08-11T18:39,2014-08-10T13:28,2014-08-09T17:27,2014-08-06T19:06,2014-08-05T19:11,2014-08-04T18:47,2014-08-03T16:09,2014-08-02T15:58,2014-07-29T18:47,2014-07-26T15:24,2014-07-22T18:43,2014-07-20T14:58,2014-07-18T09:42,2014-07-14T17:12,2014-07-04T11:11,2014-07-02T16:54,2014-06-30T11:15,2014-06-20T15:37,2014-06-19T18:31,2014-06-17T18:23,2014-06-15T13:29,2014-06-12T18:45,2014-06-11T15:51,2014-06-10T19:36,2014-06-09T15:02,2014-06-07T16:24,2014-06-05T19:06,2014-06-04T16:31,2014-06-03T16:31,2014-06-02T18:42,2014-05-31T17:03,2014-05-28T10:06,2014-05-23T16:11,2014-05-20T15:49,2014-05-14T18:53,2014-05-12T18:18,2014-05-07T18:28,2014-05-05T19:40,2014-04-18T10:56,2014-04-12T11:16,2014-04-09T16:43,2014-04-07T18:39,2014-04-06T10:43,2014-04-03T18:52,2014-04-01T17:07,2014-03-26T16:04,2014-03-23T15:18,2014-03-19T19:27,2014-03-13T18:25,2014-03-06T19:14,2014-03-05T18:47,2014-03-04T18:46,2014-03-03T18:13,2014-03-02T15:03,2014-02-26T18:10,2014-02-25T19:04,2014-02-24T18:36,2014-02-20T18:13,2014-02-15T17:28,2014-02-12T18:24,2014-02-07T16:57,2014-01-30T17:56,2014-01-29T15:54,2014-01-28T16:33,2014-01-27T18:27,2014-01-26T15:18,2014-01-21T18:10,2014-01-19T14:45,2014-01-18T16:05,2014-01-17T18:29,2014-01-16T18:51,2014-01-15T17:41,2014-01-14T18:11,2014-01-13T18:35,2014-01-12T14:12,2014-01-09T18:40,2014-01-08T16:39,2014-01-07T17:16,2014-01-06T18:00,2014-01-03T15:27,2014-01-02T10:06,2013-12-29T13:06,2013-12-28T13:17,2013-12-27T15:59,2013-12-26T12:44,2013-12-22T16:17,2013-12-21T16:20,2013-12-19T19:37,2013-12-18T16:20,2013-12-17T15:31,2013-12-16T18:25,2013-12-15T16:26,2013-12-11T16:03,2013-12-07T16:17,2013-12-02T18:50,2013-11-27T19:00,2013-11-26T15:44,2013-11-24T14:46
T: Jearoid
Z: Piano Box Version by Martin Fleischmann
H: Created 2013-02-19 /  Last Modified 2013-06-10
M: 4/4
L: 1/8
R: reel
K: Ador
!4!A| "am"!4!A!3!G!2!E!1!D EGAB | !4!AGEG A3!3!G | "G"!4!G!3!E!2!D!1!B, DEGA | !4!GEDE !4!!3!G3!4!A |
"am"!4!A!3!G!2!E!1!D EGAB | !4!AGEG !4!A3 !4!B | !5!cBAc "em"!4!B!3!A!2!G!1!E | !1!DE!3!G!4!A !3!!1!Gz !2!B/c/!4!d |
"C"!5!e4 "G"!4!d3!3!B | "am"!5!cBA!2!G !1!E!2!G!3!B!4!d | "C"!5!e4 "G"!4!d3!1!d | !1!de!4!ga g2 !2!B/c/!4!d |
"C"!5!e4 "G"!4!d3 !3!B | "am"!5!cBA!2!G !1!E!2!G!3!A!4!B | !5!cBAc "em"!4!B!3!A!2!G!1!E | !1!DE!3!GA G4 ||
P:Reggae
| "am"z2 [E2A] z2 [E2A] | z2 [E2A] z2 [E2A] | "G"z2 [D2G] z2 [D2G] | z2 [D2G] z2 [D2G] |
"am"z2 [E2A] z2 [E2A] | z2 [E2A] z2 [E2A]| [E8A]  | "em"[B,6E]z2 |
"C"[E4G] "G"[D4G] | "am"[A,D]E z [A,E]z D [A,2E]  | "C"[E4G] "G"[D4G] | z2 [D2G] z2 [D2G] |
"C"[E4G] "G"[D4G] | "am"[A,D]E z [A,E]z D [A,2E] | [A,8E] | "em"[D8G] ||


